X:65
T: Zou xikou
N: C0084
O: China,Shanxi, Hequ
S: I, 319]
N: Zwischen- und Nachspiele weggelassen.
R: Xiaodiao, Mengjiangn diao. Nann liqing]
M: 2/4
L: 1/16
K: A
B3cA2B2 | c2f2e2c2 | B8- | B8 |
c2f2e2c2 | B3cA2F2 | E8- | E8 |
F2G2B4- | B4e2c2 | B2e2A2F2 | E2C2E2F2 |
A2A2A2B2 | F2A2E2C2 | B,8

@@@ Tune index: 6066
